Komodo/status/24/weather-few-clouds.svg

<?xml version="1.0" encoding="UTF-8" standalone="no"?>
<!-- Created with Inkscape (http://www.inkscape.org/) -->
<svg
   xmlns:svg="http://www.w3.org/2000/svg"
   xmlns="http://www.w3.org/2000/svg"
   version="1.0"
   width="24"
   height="24"
   id="svg3187">
  <defs
     id="defs3189" />
  <path
     d="M 16.9497,16.949748 L 16.384101,16.384049 M 16.454801,7.5452287 L 16.9497,7.0502486 M 7.6159,7.6159287 L 7.0503,7.0502486 M 5,11.999999 L 6,11.999999 M 18,11.999999 L 19,11.999999 M 12,5.9999988 L 12,4.9999987"
     id="path2480"
     style="opacity:0.6;fill:none;stroke:#6c6962;stroke-width:4;stroke-linecap:round;stroke-linejoin:miter;marker:none;stroke-miterlimit:4;stroke-dasharray:none;stroke-dashoffset:0;stroke-opacity:1;visibility:visible;display:inline;overflow:visible;enable-background:accumulate" />
  <path
     d="M 16.500033,11.999968 C 16.500033,9.5146756 14.485314,7.4999488 12.000033,7.4999488 C 9.5147511,7.4999488 7.5000323,9.5146756 7.5000323,11.999968 C 7.5000323,14.485259 9.5147511,16.499986 12.000033,16.499986 C 14.485314,16.499986 16.500033,14.485259 16.500033,11.999968 L 16.500033,11.999968 z M 10.288241,12.50011 C 9.405912,12.491539 8.596738,12.982422 8.1500327,13.636573 C 7.362248,13.1597 6.2050613,13.576101 5.9110452,14.352863 C 5.6707596,14.719703 6.0941149,15.20341 5.518342,15.348158 C 4.5327472,15.988683 4.2073176,17.270347 4.7872094,18.222383 C 5.2520791,19.053977 6.306686,19.562943 7.3459609,19.49373 C 8.9203279,19.489356 10.495188,19.50259 12.069239,19.486913 C 13.37435,19.422072 14.492341,18.380851 14.498006,17.222546 C 14.541656,16.302389 13.863854,15.425131 12.919883,15.064438 C 12.948318,13.886845 11.9845,12.682079 10.623867,12.520889 C 10.512724,12.507015 10.40048,12.500104 10.288241,12.50011 z"
     id="path3183"
     style="opacity:0.6;fill:none;fill-opacity:1;fill-rule:nonzero;stroke:#3a3935;stroke-width:1.00000024;stroke-linecap:round;stroke-linejoin:miter;marker:none;marker-start:none;marker-mid:none;marker-end:none;stroke-miterlimit:4;stroke-dasharray:none;stroke-dashoffset:0;stroke-opacity:1;visibility:visible;display:inline;overflow:visible;enable-background:accumulate" />
  <path
     d="M 16.9497,16.949748 L 16.384101,16.384049 M 16.454801,7.5452287 L 16.9497,7.0502486 M 7.6159,7.6159287 L 7.0503,7.0502486 M 5,11.999999 L 6,11.999999 M 18,11.999999 L 19,11.999999 M 12,5.9999988 L 12,4.9999987"
     id="path2496"
     style="fill:none;stroke:#eae3d1;stroke-width:2;stroke-linecap:round;stroke-linejoin:miter;marker:none;stroke-miterlimit:4;stroke-dasharray:none;stroke-dashoffset:0;stroke-opacity:1;visibility:visible;display:inline;overflow:visible;enable-background:accumulate" />
  <path
     d="M 12,7.9999988 C 9.7908711,7.9999987 8,9.7908604 8,11.999999 C 8,12.286745 8.0364069,12.574099 8.09375,12.843749 C 8.674795,12.316212 9.3949988,11.937499 10.25,11.937499 C 11.865109,11.937499 13.174891,13.124633 13.4375,14.656249 C 13.74553,14.832506 14.0034,15.067192 14.25,15.312499 C 14.255247,15.317718 14.276042,15.307248 14.28125,15.312499 C 15.333643,14.591923 16,13.371757 16,11.999999 C 16,9.7908602 14.209129,7.9999988 12,7.9999988 z M 10.249999,12.999999 C 9.4052717,12.999999 8.6815977,13.455365 8.2968748,14.111606 C 8.0802399,13.957147 7.8035998,13.857142 7.4999999,13.857142 C 6.8099999,13.857142 6.25,14.337142 6.2499999,14.92857 C 6.2499999,15.061396 6.2765047,15.186161 6.3281249,15.30357 C 5.5433711,15.604119 5,16.284583 5,17.071427 C 5,18.139856 6.0035,18.999999 7.25,18.999999 L 11.75,18.999999 C 12.9965,18.999999 14,18.139856 14,17.071427 C 14,16.225139 13.365635,15.510985 12.484374,15.249999 C 12.486332,15.213388 12.5,15.179929 12.5,15.142856 C 12.5,13.959999 11.492,12.999999 10.249999,12.999999 z"
     id="path2876-6-6-4-0"
     style="fill:#eae3d1;fill-opacity:1;fill-rule:nonzero;stroke:none;stroke-width:11.49051189;stroke-linecap:round;stroke-linejoin:miter;marker:none;marker-start:none;marker-mid:none;marker-end:none;stroke-miterlimit:4;stroke-dasharray:none;stroke-dashoffset:0;stroke-opacity:1;visibility:visible;display:inline;overflow:visible;enable-background:accumulate" />
</svg>

<?xml version="1.0" encoding="UTF-8" standalone="no"?>
<!-- Created with Inkscape (http://www.inkscape.org/) -->
<svg id="svg3187" xmlns="http://www.w3.org/2000/svg" height="24" width="24" version="1.0">
 <path id="path2480" style="opacity:.6;stroke-width:4;stroke:#6c6962;stroke-linecap:round;fill:none" d="m16.95 16.95l-0.566-0.566m0.071-8.8388l0.495-0.495m-9.3341 0.5657l-0.5656-0.5657m-2.0503 4.9498h1m12 0h1m-7-6v-1"/>
 <path id="path3183" style="opacity:.6;stroke:#3a3935;stroke-linecap:round;fill:none" d="m16.5 12c0-2.4853-2.015-4.5001-4.5-4.5001-2.4852 0-4.5 2.0148-4.5 4.5001 0 2.485 2.0148 4.5 4.5 4.5 2.485 0 4.5-2.015 4.5-4.5zm-6.212 0.5c-0.8821-0.008-1.6913 0.482-2.138 1.137-0.7878-0.477-1.9449-0.061-2.239 0.716-0.2402 0.367 0.1831 0.85-0.3927 0.995-0.9856 0.641-1.311 1.922-0.7311 2.874 0.4649 0.832 1.5195 1.341 2.5588 1.272 1.5743-0.005 3.149 0.009 4.723-0.007 1.305-0.065 2.423-1.106 2.429-2.264 0.044-0.921-0.634-1.798-1.578-2.159 0.028-1.177-0.936-2.382-2.296-2.543-0.111-0.014-0.224-0.021-0.336-0.021z"/>
 <path id="path2496" style="stroke-width:2;stroke:#eae3d1;stroke-linecap:round;fill:none" d="m16.95 16.95l-0.566-0.566m0.071-8.8388l0.495-0.495m-9.3341 0.5657l-0.5656-0.5657m-2.0503 4.9498h1m12 0h1m-7-6v-1"/>
 <path id="path2876-6-6-4-0" style="fill:#eae3d1" d="m12 8c-2.2091 0-4 1.7909-4 4 0 0.287 0.0364 0.574 0.0938 0.844 0.581-0.528 1.3012-0.907 2.1562-0.907 1.615 0 2.925 1.188 3.188 2.719 0.308 0.177 0.565 0.411 0.812 0.656 0.005 0.006 0.026-0.005 0.031 0 1.053-0.72 1.719-1.94 1.719-3.312 0-2.2091-1.791-4-4-4zm-1.75 5c-0.8447 0-1.5684 0.455-1.9531 1.112-0.2167-0.155-0.4933-0.255-0.7969-0.255-0.69 0-1.25 0.48-1.25 1.072 0 0.132 0.0265 0.257 0.0781 0.375-0.7847 0.3-1.3281 0.981-1.3281 1.767 0 1.069 1.0035 1.929 2.25 1.929h4.5c1.246 0 2.25-0.86 2.25-1.929 0-0.846-0.634-1.56-1.516-1.821 0.002-0.037 0.016-0.07 0.016-0.107 0-1.183-1.008-2.143-2.25-2.143z"/>
</svg>
